; generated by PrusaSlicer 2.5.2+win64 on 2023-06-19 at 14:52:27 UTC


;
;

;
;

;
;
; 

; external perimeters extrusion width = 0.45mm
; perimeters extrusion width = 0.45mm
; infill extrusion width = 0.45mm
; solid infill extrusion width = 0.45mm
; top infill extrusion width = 0.40mm
; support material extrusion width = 0.37mm
; first layer extrusion width = 0.50mm

; external perimeters extrusion width = 0.45mm
; perimeters extrusion width = 0.45mm
; infill extrusion width = 0.45mm
; solid infill extrusion width = 0.45mm
; top infill extrusion width = 0.40mm
; support material extrusion width = 0.37mm
; first layer extrusion width = 0.50mm

; external perimeters extrusion width = 0.45mm
; perimeters extrusion width = 0.45mm
; infill extrusion width = 0.45mm
; solid infill extrusion width = 0.45mm
; top infill extrusion width = 0.40mm
; support material extrusion width = 0.37mm
; first layer extrusion width = 0.50mm

; external perimeters extrusion width = 0.45mm
; perimeters extrusion width = 0.45mm
; infill extrusion width = 0.45mm
; solid infill extrusion width = 0.45mm
; top infill extrusion width = 0.40mm
; support material extrusion width = 0.37mm
; first layer extrusion width = 0.50mm

; external perimeters extrusion width = 0.45mm
; perimeters extrusion width = 0.45mm
; infill extrusion width = 0.45mm
; solid infill extrusion width = 0.45mm
; top infill extrusion width = 0.40mm
; support material extrusion width = 0.37mm
; first layer extrusion width = 0.50mm

M73 P0 R59
M201 X2500 Y2500 Z200 E2500 ; sets maximum accelerations, mm/sec^2
M203 X200 Y200 Z40 E100 ; sets maximum feedrates, mm / sec
M204 P2000 R1200 T2000 ; sets acceleration (P, T) and retract acceleration (R), mm/sec^2
M205 X8.00 Y8.00 Z2.00 E10.00 ; sets the jerk limits, mm/sec
M205 S0 T0 ; sets the minimum extruding and travel feed rate, mm/sec
M107
;TYPE:Custom
M17 ; enable steppers
M862.3 P "MK4" ; printer model check
M862.1 P0.4 ; nozzle diameter check
M555 X76.6419 Y68.2294 W96.7161 H69.5413

G90 ; use absolute coordinates
M83 ; extruder relative mode

M140 S60 ; set bed temp

M104 S170 ; set extruder temp for bed leveling
M109 R170 ; wait for temp


M84 E ; turn off E motor

G28 ; home all without mesh bed level

G1 X42 Y-4 Z5 F4800

M302 S160 ; lower cold extrusion limit to 160C


G1 E-2 F2400 ; retraction


M84 E ; turn off E motor

G29 P9 X10 Y-4 W32 H4

M106 S100

G0 Z40 F10000

M190 S60 ; wait for bed temp

M107

;
; MBL
;
M84 E ; turn off E motor
G29 P1 ; invalidate mbl & probe print area
G29 P1 X0 Y0 W50 H20 C ; probe near purge place
G29 P3.2 ; interpolate mbl probes
G29 P3.13 ; extrapolate mbl outside probe area
G29 A ; activate mbl

; prepare for purge
M104 S215
G0 X0 Y-4 Z15 F4800 ; move away and ready for the purge
M109 S215

G92 E0
M569 S0 E ; set spreadcycle mode for extruder

;
; Extrude purge line
;
G92 E0 ; reset extruder position
G1 E2 F2400 ; deretraction after the initial one before nozzle cleaning
G0 E7 X15 Z0.2 F500 ; purge
G0 X25 E4 F500 ; purge
G0 X35 E4 F650 ; purge
G0 X45 E4 F800 ; purge
G0 X48 Z0.05 F8000 ; wipe, move close to the bed
G0 X51 Z0.2 F8000 ; wipe, move quickly away from the bed

G92 E0
M221 S100 ; set flow to 100%
G21 ; set units to millimeters
G90 ; use absolute coordinates
M83 ; use relative distances for extrusion
M900 K0.05 ; Filament gcode

M142 S36 ; set heatbreak target temp
M107
;LAYER_CHANGE
;Z:0.2
;HEIGHT:0.2
;BEFORE_LAYER_CHANGE
G92 E0.0
;0.2


G1 E-.8 F2100
G1 Z.2 F720
;AFTER_LAYER_CHANGE
;0.2
; printing object LED Holder V3.stl id:0 copy 0
G1 Z.4
G1 X91.742 Y112.751 F12000
G1 Z.2 F720
G1 E.8 F1500
M204 P600
;TYPE:Support material
;WIDTH:0.5
G1 F1200
G1 X92.493 Y112.8 E.02859
G1 X92.936 Y112.857 E.01698
G1 X93.376 Y112.933 E.01698
G1 X93.813 Y113.028 E.01698
G1 X94.245 Y113.142 E.01698
G1 X94.671 Y113.274 E.01698
G1 X95.092 Y113.425 E.01698
G1 X95.505 Y113.595 E.01698
G1 X95.911 Y113.782 E.01698
G1 X96.308 Y113.986 E.01698
G1 X96.696 Y114.208 E.01698
G1 X97.074 Y114.446 E.01698
G1 X97.441 Y114.701 E.01698
G1 X97.796 Y114.971 E.01698
G1 X98.14 Y115.257 E.01699
G1 X98.653 Y115.722 E.02632
G1 X98.691 Y115.721 E.00146
G1 X98.69 Y115.76 E.00146
G1 X99.156 Y116.273 E.02633
G1 X99.441 Y116.616 E.01697
G1 X99.712 Y116.972 E.01698
G1 X99.966 Y117.339 E.01698
G1 X100.205 Y117.717 E.01698
G1 X100.426 Y118.105 E.01698
G1 X100.631 Y118.502 E.01698
G1 X100.818 Y118.907 E.01698
G1 X100.987 Y119.321 E.01698
G1 X101.138 Y119.741 E.01698
G1 X101.271 Y120.168 E.01698
G1 X101.385 Y120.6 E.01698
G1 X101.504 Y121.175 E.02234
G1 X101.612 Y121.92 E.02859
G1 X101.65 Y122.365 E.01698
G1 X101.667 Y122.811 E.01698
G1 X101.666 Y123.258 E.01698
G1 X101.645 Y123.704 E.01698
G1 X101.604 Y124.149 E.01698
G1 X101.545 Y124.592 E.01698
G1 X101.434 Y125.169 E.02234
G1 X101.25 Y125.898 E.02859
G1 X101.115 Y126.324 E.01698
G1 X100.961 Y126.743 E.01698
G1 X100.788 Y127.155 E.01698
G1 X100.598 Y127.56 E.01698
G1 X100.391 Y127.955 E.01698
G1 X100.167 Y128.342 E.01698
G1 X99.926 Y128.718 E.01698
G1 X99.668 Y129.083 E.01698
G1 X99.396 Y129.437 E.01698
G1 X99.108 Y129.778 E.01698
G1 X98.805 Y130.107 E.01698
G1 X98.488 Y130.422 E.01698
G1 X98.158 Y130.723 E.01698
G1 X97.703 Y131.095 E.02233
G1 X97.094 Y131.536 E.02859
G1 X96.717 Y131.775 E.01698
G1 X96.329 Y131.998 E.01698
G1 X95.933 Y132.203 E.01698
G1 X95.528 Y132.391 E.01698
G1 X95.114 Y132.562 E.01698
G1 X94.694 Y132.714 E.01698
G1 X94.268 Y132.847 E.01698
G1 X93.699 Y132.993 E.02234
G1 X92.96 Y133.135 E.02859
G1 X92.517 Y133.193 E.01698
G1 X92.072 Y133.231 E.01698
G1 X91.626 Y133.25 E.01698
G1 X91.179 Y133.25 E.01698
G1 X90.733 Y133.23 E.01698
G1 X90.288 Y133.19 E.01698
G1 X89.845 Y133.132 E.01698
G1 X89.268 Y133.023 E.02233
G1 X88.538 Y132.841 E.02859
G1 X88.112 Y132.706 E.01698
G1 X87.692 Y132.553 E.01698
G1 X87.279 Y132.382 E.01698
G1 X86.875 Y132.193 E.01698
G1 X86.479 Y131.986 E.01698
G1 X86.092 Y131.763 E.01698
G1 X85.715 Y131.522 E.01698
G1 X85.349 Y131.266 E.01698
G1 X84.995 Y130.994 E.01698
G1 X84.549 Y130.612 E.02234
G1 X84.007 Y130.089 E.02859
G1 X83.706 Y129.76 E.01698
G1 X83.418 Y129.418 E.01698
G1 X83.146 Y129.063 E.01698
G1 X82.89 Y128.697 E.01698
G1 X82.65 Y128.321 E.01698
G1 X82.426 Y127.934 E.01698
G1 X82.22 Y127.538 E.01698
G1 X82.031 Y127.133 E.01698
G1 X81.86 Y126.721 E.01698
G1 X81.707 Y126.301 E.01698
G1 X81.572 Y125.875 E.01698
G1 X81.456 Y125.443 E.01698
G1 X81.334 Y124.868 E.02234
G1 X81.222 Y124.125 E.02858
G1 X81.183 Y123.68 E.01698
G1 X81.163 Y123.234 E.01698
G1 X81.162 Y122.787 E.01698
G1 X81.181 Y122.34 E.01698
G1 X81.22 Y121.895 E.01698
G1 X81.277 Y121.452 E.01698
G1 X81.385 Y120.875 E.02234
G1 X81.565 Y120.144 E.02859
G1 X81.699 Y119.718 E.01698
G1 X81.851 Y119.298 E.01698
G1 X82.021 Y118.885 E.01698
G1 X82.209 Y118.48 E.01698
G1 X82.415 Y118.083 E.01698
G1 X82.637 Y117.696 E.01698
G1 X82.957 Y117.203 E.02233
G1 X83.403 Y116.597 E.02859
G1 X83.69 Y116.254 E.01698
G1 X83.991 Y115.924 E.01698
G1 X84.306 Y115.608 E.01698
G1 X84.634 Y115.305 E.01698
G1 X84.976 Y115.017 E.01698
G1 X85.33 Y114.744 E.01698
G1 X85.695 Y114.487 E.01698
G1 X86.071 Y114.246 E.01698
G1 X86.457 Y114.021 E.01698
G1 X86.98 Y113.754 E.02233
G1 X87.669 Y113.452 E.02859
G1 X88.089 Y113.298 E.01698
G1 X88.65 Y113.125 E.02234
G1 X89.381 Y112.947 E.02859
G1 X89.821 Y112.868 E.01698
G1 X90.264 Y112.808 E.01698
G1 X90.708 Y112.768 E.01698
G1 X91.155 Y112.747 E.01698
G1 X91.674 Y112.748 E.01973
M204 P1000
G1 X101.127 Y125.568 F12000
M204 P600
G1 F1200
G1 X101.127 Y121.411 E.15801
G1 X100.985 Y120.696 E.02769
G1 X100.875 Y120.281 E.0163
G1 X100.748 Y119.872 E.0163
G1 X100.556 Y119.352 E.02107
G1 X100.556 Y126.646 E.27721
G1 X100.412 Y126.989 E.01411
G1 X100.23 Y127.377 E.0163
G1 X99.984 Y127.837 E.01983
G1 X99.984 Y118.16 E.36779
G1 X99.623 Y117.566 E.02642
G1 X99.413 Y117.263 E.01403
G1 X99.413 Y128.732 E.43589
G1 X99.075 Y129.178 E.02128
G1 X98.841 Y129.456 E.01379
G1 X98.841 Y116.538 E.49094
G1 X98.381 Y116.031 E.02603
G1 X98.27 Y115.931 E.0057
G1 X98.27 Y130.059 E.53695
G1 X97.888 Y130.413 E.01981
G1 X97.699 Y130.571 E.00935
G1 X97.699 Y115.425 E.57564
G1 X97.127 Y114.984 E.02743
G1 X97.127 Y131.011 E.60913
G1 X96.556 Y131.39 E.02605
G1 X96.556 Y114.606 E.63789
G1 X95.985 Y114.283 E.02496
G1 X95.985 Y131.713 E.66247
G1 X95.413 Y131.991 E.02414
G1 X95.413 Y114.005 E.68357
G1 X94.842 Y113.773 E.02344
G1 X94.842 Y132.223 E.70122
G1 X94.271 Y132.415 E.02292
G1 X94.271 Y113.581 E.71584
G1 X94.131 Y113.537 E.00555
G1 X93.699 Y113.424 E.01696
G1 X93.699 Y132.571 E.72771
G1 X93.128 Y132.688 E.02217
G1 X93.128 Y113.307 E.73659
G1 X92.557 Y113.223 E.02195
G1 X92.557 Y132.773 E.74301
G1 X91.985 Y132.823 E.0218
G1 X91.985 Y113.172 E.74686
G1 X91.414 Y113.157 E.02172
G1 X91.414 Y132.839 E.74802
G1 X90.843 Y132.823 E.02172
G1 X90.843 Y113.173 E.7468
G1 X90.271 Y113.222 E.02179
G1 X90.271 Y132.773 E.74305
G1 X89.7 Y132.688 E.02195
G1 X89.7 Y113.308 E.73657
G1 X89.129 Y113.426 E.02217
G1 X89.129 Y132.571 E.72763
G1 X88.557 Y132.415 E.0225
G1 X88.557 Y113.58 E.71585
G1 X87.986 Y113.774 E.02293
G1 X87.986 Y132.222 E.70115
G1 X87.414 Y131.991 E.02343
G1 X87.414 Y114.005 E.68358
G1 X86.843 Y114.284 E.02416
G1 X86.843 Y131.712 E.6624
G1 X86.272 Y131.39 E.02494
G1 X86.272 Y114.606 E.63789
G1 X85.7 Y114.986 E.02609
G1 X85.7 Y131.01 E.60901
G1 X85.129 Y130.57 E.02741
G1 X85.129 Y115.426 E.57556
G1 X84.906 Y115.614 E.01107
G1 X84.558 Y115.938 E.01809
G1 X84.558 Y130.058 E.53666
G1 X84.305 Y129.805 E.0136
M73 P1 R59
G1 X83.986 Y129.455 E.01799
G1 X83.986 Y116.541 E.49081
G1 X83.725 Y116.854 E.01552
G1 X83.415 Y117.266 E.01957
G1 X83.415 Y128.73 E.43572
G1 X83.232 Y128.469 E.01211
G1 X82.844 Y127.834 E.02829
G1 X82.844 Y118.162 E.36758
G1 X82.579 Y118.661 E.02147
G1 X82.398 Y119.05 E.0163
G1 X82.272 Y119.355 E.01254
G1 X82.272 Y126.641 E.27692
G1 X82.096 Y126.168 E.01919
G1 X81.967 Y125.759 E.0163
G1 X81.856 Y125.345 E.0163
G1 X81.763 Y124.927 E.0163
G1 X81.701 Y124.58 E.0134
M73 P1 R58
G1 X81.701 Y120.434 E.15756
M204 P1000
G1 E-.64 F2100
;WIPE_START
G1 F9600
G1 X81.701 Y121.165 E-.152
;WIPE_END
G1 E-.008 F2100
G1 Z.4 F720
G1 X98.839 Y113.867 F12000
G1 Z.2 F720
G1 E.8 F1500
M204 P600
;TYPE:Perimeter
;WIDTH:0.499999
G1 F1200
G1 X98.717 Y113.766 E.00602
G1 X98.121 Y113.333 E.02799
G1 X97.555 Y112.967 E.02561
G1 X96.664 Y112.473 E.03873
G1 X95.733 Y112.058 E.03873
G1 X94.77 Y111.725 E.03873
G1 X94.141 Y111.547 E.02483
G1 X93.293 Y111.38 E.03288
G1 X92.271 Y111.267 E.03905
G1 X91.249 Y111.237 E.03886
G1 X90.232 Y111.296 E.03873
G1 X89.218 Y111.441 E.03891
G1 X88.728 Y111.54 E.01902
G1 X87.743 Y111.823 E.03893
G1 X87.088 Y112.051 E.02639
G1 X86.285 Y112.407 E.03337
G1 X85.821 Y112.652 E.01995
G1 X84.994 Y113.143 E.03655
G1 X84.165 Y113.735 E.03873
G1 X83.39 Y114.398 E.03874
G1 X82.676 Y115.125 E.03873
G1 X82.027 Y115.911 E.03873
G1 X81.448 Y116.75 E.03874
G1 X80.945 Y117.636 E.03874
G1 X80.52 Y118.562 E.03874
G1 X80.252 Y119.261 E.02844
G1 X80.023 Y120.053 E.03131
G1 X79.907 Y120.564 E.01994
G1 X79.746 Y121.513 E.03656
G1 X79.661 Y122.528 E.03874
G1 X79.664 Y123.547 E.03874
G1 X79.755 Y124.559 E.03861
G1 X79.935 Y125.566 E.03887
G1 X80.2 Y126.55 E.03874
G1 X80.549 Y127.508 E.03874
G1 X80.979 Y128.428 E.03862
G1 X81.49 Y129.314 E.03887
G1 X82.074 Y130.15 E.03874
G1 X82.728 Y130.932 E.03874
G1 X83.447 Y131.654 E.03874
G1 X84.229 Y132.314 E.03891
G1 X84.748 Y132.697 E.02449
G1 X85.494 Y133.165 E.03348
G1 X86.397 Y133.639 E.03874
G1 X87.337 Y134.034 E.03874
G1 X88.311 Y134.347 E.03892
G1 X88.96 Y134.508 E.02541
G1 X89.804 Y134.653 E.03255
G1 X90.819 Y134.749 E.03874
G1 X91.839 Y134.756 E.03875
G1 X92.855 Y134.675 E.03875
G1 X93.861 Y134.507 E.03875
G1 X94.848 Y134.252 E.03875
G1 X95.806 Y133.914 E.03862
G1 X96.738 Y133.492 E.03888
G1 X97.626 Y132.992 E.03875
G1 X98.468 Y132.417 E.03875
G1 X99.257 Y131.771 E.03875
G1 X99.987 Y131.059 E.03875
G1 X100.653 Y130.287 E.03875
G1 X101.249 Y129.46 E.03875
G1 X101.772 Y128.585 E.03875
G1 X102.217 Y127.667 E.03875
G1 X102.581 Y126.714 E.03875
G1 X102.861 Y125.734 E.03875
G1 X103.055 Y124.733 E.03875
G1 X103.161 Y123.719 E.03875
G1 X103.18 Y122.699 E.03876
G1 X103.11 Y121.677 E.03893
G1 X102.995 Y120.895 E.03005
G1 X102.841 Y120.177 E.02792
G1 X102.554 Y119.198 E.03876
G1 X102.184 Y118.248 E.03876
G1 X101.745 Y117.355 E.03782
G1 X101.446 Y116.857 E.02205
G1 X101.08 Y116.292 E.02561
G1 X100.546 Y115.574 E.034
G1 X102.03 Y114.09 E.07977
G1 X102.216 Y114.304 E.01078
G1 X102.584 Y114.783 E.02296
G1 X102.944 Y115.296 E.02382
G1 X103.257 Y115.787 E.02211
G1 X103.57 Y116.328 E.02378
G1 X103.837 Y116.839 E.02191
G1 X104.104 Y117.411 E.02399
G1 X104.324 Y117.938 E.0217
G1 X104.542 Y118.536 E.02419
G1 X104.713 Y119.075 E.0215
G1 X104.871 Y119.655 E.02284
G1 X104.99 Y120.182 E.02052
G1 X105.11 Y120.836 E.0253
G1 X105.196 Y121.485 E.02486
G1 X105.246 Y122.027 E.0207
G1 X105.275 Y122.628 E.02284
G1 X105.278 Y123.229 E.02285
G1 X105.25 Y123.889 E.02512
G1 X105.206 Y124.428 E.02057
G1 X105.12 Y125.089 E.02533
G1 X105.03 Y125.617 E.02036
G1 X104.886 Y126.274 E.02553
G1 X104.752 Y126.787 E.02016
G1 X104.55 Y127.433 E.02574
G1 X104.374 Y127.928 E.01995
G1 X104.114 Y128.559 E.02594
G1 X103.898 Y129.031 E.01974
G1 X103.582 Y129.642 E.02615
G1 X103.329 Y130.09 E.01954
G1 X102.958 Y130.676 E.02636
G1 X102.67 Y131.095 E.01933
G1 X102.246 Y131.651 E.02656
G1 X101.926 Y132.039 E.01912
G1 X101.525 Y132.486 E.02284
G1 X101.104 Y132.916 E.02284
G1 X100.665 Y133.326 E.02284
G1 X100.209 Y133.717 E.02285
G1 X99.736 Y134.088 E.02284
G1 X99.247 Y134.439 E.02285
G1 X98.744 Y134.767 E.02284
G1 X98.227 Y135.074 E.02285
G1 X97.697 Y135.358 E.02284
G1 X97.211 Y135.592 E.02051
G1 X96.6 Y135.857 E.0253
G1 X96.041 Y136.068 E.02272
G1 X95.47 Y136.257 E.02284
G1 X94.892 Y136.42 E.02285
G1 X94.307 Y136.558 E.02284
G1 X93.716 Y136.671 E.02284
G1 X93.122 Y136.758 E.02285
G1 X92.524 Y136.819 E.02284
G1 X91.924 Y136.854 E.02284
G1 X91.323 Y136.863 E.02284
G1 X90.722 Y136.846 E.02285
G1 X90.122 Y136.803 E.02284
G1 X89.525 Y136.734 E.02285
G1 X88.932 Y136.639 E.02284
G1 X88.343 Y136.518 E.02285
G1 X87.76 Y136.373 E.02285
G1 X87.183 Y136.202 E.02284
G1 X86.615 Y136.006 E.02285
G1 X86.056 Y135.786 E.02284
G1 X85.506 Y135.541 E.02285
G1 X84.968 Y135.273 E.02285
G1 X84.442 Y134.982 E.02284
G1 X83.93 Y134.669 E.02285
G1 X83.431 Y134.334 E.02284
G1 X82.947 Y133.977 E.02285
G1 X82.479 Y133.6 E.02284
G1 X82.028 Y133.202 E.02285
G1 X81.594 Y132.786 E.02284
G1 X81.179 Y132.351 E.02284
G1 X80.784 Y131.899 E.02285
G1 X80.408 Y131.43 E.02284
G1 X80.053 Y130.945 E.02285
G1 X79.719 Y130.445 E.02284
G1 X79.439 Y129.983 E.02051
G1 X79.117 Y129.401 E.0253
G1 X78.852 Y128.865 E.02272
G1 X78.609 Y128.315 E.02285
G1 X78.391 Y127.755 E.02284
G1 X78.197 Y127.186 E.02285
G1 X78.028 Y126.609 E.02284
G1 X77.884 Y126.026 E.02285
G1 X77.778 Y125.496 E.02051
G1 X77.672 Y124.839 E.0253
G1 X77.606 Y124.245 E.02272
G1 X77.565 Y123.645 E.02284
G1 X77.55 Y123.044 E.02285
G1 X77.561 Y122.443 E.02284
G1 X77.598 Y121.844 E.02284
G1 X77.661 Y121.246 E.02284
G1 X77.75 Y120.651 E.02285
G1 X77.852 Y120.121 E.02051
G1 X78.005 Y119.473 E.0253
G1 X78.169 Y118.899 E.02272
G1 X78.359 Y118.329 E.02284
G1 X78.574 Y117.767 E.02284
G1 X78.813 Y117.215 E.02285
G1 X79.075 Y116.675 E.02284
G1 X79.361 Y116.146 E.02284
G1 X79.669 Y115.63 E.02285
G1 X80 Y115.128 E.02284
G1 X80.352 Y114.64 E.02285
G1 X80.724 Y114.169 E.02284
G1 X81.117 Y113.714 E.02285
G1 X81.529 Y113.276 E.02284
G1 X81.96 Y112.857 E.02284
G1 X82.408 Y112.456 E.02284
G1 X82.873 Y112.076 E.02285
G1 X83.355 Y111.716 E.02284
G1 X83.851 Y111.377 E.02285
G1 X84.362 Y111.06 E.02284
G1 X84.833 Y110.796 E.02051
G1 X85.425 Y110.493 E.0253
G1 X85.97 Y110.247 E.02272
G1 X86.528 Y110.023 E.02284
G1 X87.095 Y109.823 E.02285
G1 X87.67 Y109.648 E.02284
G1 X88.345 Y109.478 E.02647
G1 X88.84 Y109.374 E.01922
G1 X89.433 Y109.275 E.02285
G1 X90.03 Y109.202 E.02284
G1 X90.629 Y109.155 E.02284
G1 X91.229 Y109.134 E.02285
G1 X91.772 Y109.139 E.02062
G1 X92.434 Y109.17 E.0252
G1 X93.029 Y109.227 E.02272
G1 X93.714 Y109.326 E.0263
G1 X94.216 Y109.419 E.01939
G1 X94.802 Y109.553 E.02284
G1 X95.381 Y109.712 E.02285
