; generated by PrusaSlicer 2.5.2+win64 on 2023-06-19 at 03:03:37 UTC


;
;

;
;

;
;
; 

; external perimeters extrusion width = 0.45mm
; perimeters extrusion width = 0.45mm
; infill extrusion width = 0.45mm
; solid infill extrusion width = 0.45mm
; top infill extrusion width = 0.40mm
; first layer extrusion width = 0.50mm

M73 P0 R1
M201 X2500 Y2500 Z200 E2500 ; sets maximum accelerations, mm/sec^2
M203 X200 Y200 Z40 E100 ; sets maximum feedrates, mm / sec
M204 P2000 R1200 T2000 ; sets acceleration (P, T) and retract acceleration (R), mm/sec^2
M205 X8.00 Y8.00 Z2.00 E10.00 ; sets the jerk limits, mm/sec
M205 S0 T0 ; sets the minimum extruding and travel feed rate, mm/sec
M107
;TYPE:Custom
M17 ; enable steppers
M862.3 P "MK4" ; printer model check
M862.1 P0.4 ; nozzle diameter check
M555 X113 Y96.5 W32 H13

G90 ; use absolute coordinates
M83 ; extruder relative mode

M140 S60 ; set bed temp

M104 S170 ; set extruder temp for bed leveling
M109 R170 ; wait for temp


M84 E ; turn off E motor

G28 ; home all without mesh bed level

G1 X42 Y-4 Z5 F4800

M302 S160 ; lower cold extrusion limit to 160C


G1 E-2 F2400 ; retraction


M84 E ; turn off E motor

G29 P9 X10 Y-4 W32 H4

M106 S100

G0 Z40 F10000

M190 S60 ; wait for bed temp

M107

;
; MBL
;
M84 E ; turn off E motor
G29 P1 ; invalidate mbl & probe print area
G29 P1 X0 Y0 W50 H20 C ; probe near purge place
G29 P3.2 ; interpolate mbl probes
G29 P3.13 ; extrapolate mbl outside probe area
G29 A ; activate mbl

; prepare for purge
M104 S215
G0 X0 Y-4 Z15 F4800 ; move away and ready for the purge
M109 S215

G92 E0
M569 S0 E ; set spreadcycle mode for extruder

;
; Extrude purge line
;
G92 E0 ; reset extruder position
G1 E2 F2400 ; deretraction after the initial one before nozzle cleaning
G0 E7 X15 Z0.2 F500 ; purge
G0 X25 E4 F500 ; purge
G0 X35 E4 F650 ; purge
G0 X45 E4 F800 ; purge
G0 X48 Z0.05 F8000 ; wipe, move close to the bed
G0 X51 Z0.2 F8000 ; wipe, move quickly away from the bed

G92 E0
M221 S100 ; set flow to 100%
G21 ; set units to millimeters
G90 ; use absolute coordinates
M83 ; use relative distances for extrusion
M900 K0.05 ; Filament gcode

M142 S36 ; set heatbreak target temp
M107
;LAYER_CHANGE
;Z:0.2
;HEIGHT:0.2
;BEFORE_LAYER_CHANGE
G92 E0.0
;0.2


G1 E-.8 F2100
M73 P1 R1
G1 Z.2 F720
;AFTER_LAYER_CHANGE
;0.2
; printing object PiPicoCaseWireFeedThrough.stl id:0 copy 0
M73 P2 R1
G1 Z.4
G1 X135.99 Y108.321 F12000
M73 P5 R1
G1 Z.2 F720
M73 P6 R1
G1 E.8 F1500
M204 P600
;TYPE:Perimeter
;WIDTH:0.499999
M73 P7 R1
G1 F1200
M73 P8 R1
G1 X135.777 Y108.516 E.01097
G1 X135.467 Y108.593 E.01214
G1 X114.62 Y108.592 E.79234
G1 X114.45 Y108.58 E.00647
G1 X114.152 Y108.47 E.01206
G1 X113.992 Y108.278 E.00952
M73 P9 R1
G1 X113.907 Y107.939 E.01326
G1 X113.912 Y101.964 E.22711
G1 X114.04 Y101.637 E.01332
G1 X114.214 Y101.498 E.00847
G1 X114.563 Y101.407 E.0137
G1 X135.403 Y101.408 E.79208
M73 P10 R1
G1 X135.715 Y101.461 E.01202
G1 X135.91 Y101.59 E.00888
G1 X136.04 Y101.785 E.00889
G1 X136.092 Y102.095 E.01195
G1 X136.093 Y107.908 E.22093
G1 X136.087 Y107.997 E.00339
G1 X136.007 Y108.264 E.01059
M204 P1000
G1 X136.382 Y108.565 F12000
M204 P600
;TYPE:External perimeter
G1 F1200
M73 P11 R1
G1 X136.101 Y108.847 E.01513
G1 X135.852 Y108.973 E.01061
G1 X135.487 Y109.05 E.01419
G1 X114.62 Y109.049 E.79309
G1 X114.151 Y108.988 E.01796
M73 P12 R1
G1 X113.877 Y108.842 E.01179
G1 X113.658 Y108.623 E.01179
G1 X113.514 Y108.351 E.01168
G1 X113.45 Y107.978 E.0144
G1 X113.455 Y102.03 E.22607
G1 X113.515 Y101.644 E.01482
G1 X113.67 Y101.36 E.01231
G1 X113.86 Y101.17 E.0102
M73 P13 R1
G1 X114.139 Y101.017 E.0121
G1 X114.523 Y100.95 E.0148
G1 X135.403 Y100.951 E.79359
G1 X135.898 Y101.033 E.01904
G1 X136.239 Y101.261 E.01561
G1 X136.467 Y101.602 E.01561
G1 X136.549 Y102.095 E.01897
G1 X136.55 Y107.908 E.22093
G1 X136.513 Y108.269 E.01378
G1 X136.406 Y108.51 E.01003
M204 P1000
G1 X135.986 Y108.533 F12000
G1 E-.64 F2100
;WIPE_START
M73 P14 R1
G1 F9600
G1 X136.101 Y108.847 E-.09445
G1 X135.854 Y108.972 E-.05755
;WIPE_END
G1 E-.008 F2100
G1 Z.4 F720
M73 P15 R1
G1 X126.593 Y104.627 F12000
G1 Z.2 F720
G1 E.8 F1500
M204 P600
;TYPE:Perimeter
G1 F1200
G1 X126.657 Y105 E.01437
G1 X126.57 Y105.505 E.01948
G1 X126.468 Y105.752 E.01017
G1 X126.257 Y106.068 E.01442
G1 X126.068 Y106.257 E.01018
G1 X125.752 Y106.468 E.01442
G1 X125.505 Y106.57 E.01017
G1 X125 Y106.657 E.01949
G1 X124.495 Y106.57 E.01948
G1 X124.248 Y106.468 E.01017
G1 X123.932 Y106.257 E.01442
G1 X123.743 Y106.068 E.01018
G1 X123.532 Y105.752 E.01442
G1 X123.43 Y105.505 E.01017
G1 X123.343 Y105 E.01949
G1 X123.43 Y104.495 E.01948
G1 X123.532 Y104.248 E.01017
G1 X123.743 Y103.932 E.01442
G1 X123.932 Y103.743 E.01017
G1 X124.247 Y103.532 E.01441
G1 X124.492 Y103.43 E.01007
G1 X124.992 Y103.343 E.0193
G1 X125.502 Y103.429 E.01967
G1 X125.752 Y103.532 E.01028
G1 X126.068 Y103.743 E.01442
G1 X126.257 Y103.932 E.01018
G1 X126.468 Y104.248 E.01442
G1 X126.57 Y104.495 E.01017
G1 X126.583 Y104.568 E.00284
M204 P1000
G1 X126.2 Y105 F12000
M204 P600
;TYPE:External perimeter
G1 F1200
G1 X126.088 Y105.499 E.01942
G1 X125.814 Y105.877 E.01776
G1 X125.416 Y106.122 E.01775
G1 X124.955 Y106.196 E.01773
G1 X124.501 Y106.088 E.01774
G1 X124.123 Y105.814 E.01776
G1 X123.878 Y105.416 E.01775
G1 X123.804 Y104.955 E.01773
M73 P16 R1
G1 X123.912 Y104.501 E.01774
G1 X124.186 Y104.123 E.01776
G1 X124.583 Y103.878 E.01771
G1 X125.036 Y103.804 E.01744
G1 X125.499 Y103.912 E.01807
G1 X125.877 Y104.186 E.01776
G1 X126.122 Y104.584 E.01775
G1 X126.189 Y104.941 E.01381
M204 P1000
G1 X126.542 Y105.208 F12000
G1 E-.64 F2100
;WIPE_START
G1 F9600
G1 X126.088 Y105.499 E-.11775
G1 X125.991 Y105.632 E-.03425
;WIPE_END
G1 E-.008 F2100
G1 Z.4 F720
G1 X134.689 Y101.614 F12000
G1 Z.2 F720
G1 E.8 F1500
M204 P600
;TYPE:Solid infill
;WIDTH:0.505262
G1 F1200
G1 X135.68 Y102.606 E.05391
G1 X135.681 Y103.26 E.02514
G1 X134.241 Y101.82 E.07829
G1 X133.587 Y101.82 E.02514
G1 X135.681 Y103.914 E.11385
G1 X135.681 Y104.568 E.02514
G1 X132.933 Y101.82 E.1494
G1 X132.279 Y101.819 E.02514
G1 X135.681 Y105.222 E.18496
G1 X135.681 Y105.876 E.02514
G1 X131.625 Y101.819 E.22052
G1 X130.971 Y101.819 E.02514
G1 X135.681 Y106.53 E.25608
G1 X135.681 Y107.184 E.02514
M73 P17 R1
G1 X130.317 Y101.819 E.29164
G1 X129.663 Y101.819 E.02514
G1 X135.682 Y107.837 E.32719
G1 X135.668 Y108.033 E.00752
G1 X135.637 Y108.102 E.0029
G1 X135.589 Y108.146 E.00249
G1 X135.495 Y108.178 E.00383
M73 P18 R1
G1 X135.372 Y108.182 E.00474
G1 X129.009 Y101.819 E.3459
G1 X128.356 Y101.819 E.02514
G1 X134.718 Y108.182 E.3459
G1 X134.064 Y108.181 E.02514
M73 P19 R1
G1 X127.702 Y101.819 E.3459
G1 X127.048 Y101.819 E.02514
G1 X133.41 Y108.181 E.3459
G1 X132.756 Y108.181 E.02514
G1 X126.394 Y101.819 E.3459
G1 X125.74 Y101.819 E.02514
G1 X132.102 Y108.181 E.3459
G1 X131.448 Y108.181 E.02514
M73 P20 R1
G1 X125.086 Y101.819 E.3459
G1 X124.432 Y101.819 E.02514
G1 X130.795 Y108.181 E.3459
G1 X130.141 Y108.181 E.02514
M73 P21 R1
G1 X127.06 Y105.1 E.16751
G1 X127.049 Y105.205 E.00405
G1 X126.97 Y105.603 E.0156
G1 X126.952 Y105.647 E.00181
M73 P22 R1
G1 X129.487 Y108.181 E.1378
G1 X128.833 Y108.181 E.02514
G1 X126.739 Y106.087 E.11384
G1 X126.589 Y106.311 E.01036
M73 P23 R1
G1 X126.449 Y106.451 E.00761
G1 X128.179 Y108.181 E.09404
G1 X127.525 Y108.181 E.02514
G1 X126.085 Y106.741 E.07831
G1 X125.966 Y106.82 E.00549
G1 X125.644 Y106.953 E.01341
G1 X126.871 Y108.181 E.06674
G1 X126.217 Y108.181 E.02514
G1 X124.888 Y106.852 E.07227
M204 P1000
G1 E-.64 F2100
;WIPE_START
G1 F9600
G1 X125.405 Y107.369 E-.152
;WIPE_END
M73 P24 R1
G1 E-.008 F2100
G1 Z.4 F720
G1 X125.108 Y103.149 F12000
G1 Z.2 F720
G1 E.8 F1500
M204 P600
G1 F1200
G1 X123.778 Y101.819 E.07228
G1 X123.124 Y101.819 E.02514
G1 X124.353 Y103.047 E.06679
G1 X124.034 Y103.18 E.01329
G1 X123.913 Y103.261 E.00559
G1 X122.471 Y101.819 E.07841
G1 X121.817 Y101.819 E.02514
G1 X123.549 Y103.551 E.09416
G1 X123.411 Y103.689 E.0075
G1 X123.259 Y103.915 E.01048
G1 X121.163 Y101.819 E.11398
G1 X120.509 Y101.819 E.02514
G1 X123.047 Y104.356 E.13797
G1 X122.951 Y104.795 E.01726
G1 X122.94 Y104.904 E.0042
M73 P25 R1
G1 X119.855 Y101.819 E.16772
G1 X119.201 Y101.819 E.02514
G1 X125.563 Y108.181 E.3459
G1 X124.91 Y108.181 E.02514
G1 X118.547 Y101.819 E.3459
G1 X117.893 Y101.819 E.02514
G1 X124.256 Y108.181 E.3459
G1 X123.602 Y108.181 E.02514
G1 X117.239 Y101.819 E.3459
G1 X116.586 Y101.819 E.02514
G1 X122.948 Y108.181 E.3459
G1 X122.294 Y108.181 E.02514
M73 P26 R1
G1 X115.932 Y101.819 E.3459
G1 X115.278 Y101.818 E.02514
G1 X121.64 Y108.181 E.3459
G1 X120.986 Y108.181 E.02514
M73 P27 R1
G1 X114.626 Y101.82 E.34581
G1 X114.429 Y101.849 E.00765
G1 X114.372 Y101.887 E.00261
G1 X114.336 Y101.953 E.00292
M73 P28 R1
G1 X114.323 Y102.009 E.00219
G1 X114.323 Y102.172 E.00625
G1 X120.332 Y108.181 E.3267
G1 X119.678 Y108.181 E.02514
M73 P29 R1
G1 X114.323 Y102.825 E.29118
G1 X114.322 Y103.478 E.02512
G1 X119.025 Y108.181 E.25566
G1 X118.371 Y108.181 E.02514
G1 X114.322 Y104.132 E.22014
G1 X114.321 Y104.785 E.02512
G1 X117.717 Y108.181 E.18462
G1 X117.063 Y108.18 E.02514
M73 P30 R1
G1 X114.321 Y105.438 E.1491
G1 X114.32 Y106.091 E.02512
G1 X116.409 Y108.18 E.11357
G1 X115.755 Y108.18 E.02514
M73 P31 R1
G1 X114.319 Y106.745 E.07805
G1 X114.319 Y107.398 E.02512
G1 X115.101 Y108.18 E.04253
G1 X114.551 Y108.18 E.02114
G1 X114.444 Y108.16 E.00422
G1 X114.407 Y108.14 E.00159
G1 X114.113 Y107.846 E.016
M204 P1000
; stop printing object PiPicoCaseWireFeedThrough.stl id:0 copy 0
M106 S84.15
;LAYER_CHANGE
;Z:0.4
;HEIGHT:0.2
;BEFORE_LAYER_CHANGE
G92 E0.0
;0.4


G1 E-.64 F2100
;WIPE_START
M73 P32 R1
G1 F9600
G1 X114.407 Y108.14 E-.08649
G1 X114.444 Y108.16 E-.00857
G1 X114.551 Y108.18 E-.02279
G1 X114.716 Y108.18 E-.03415
;WIPE_END
G1 E-.008 F2100
G1 Z.4 F720
;AFTER_LAYER_CHANGE
;0.4
; printing object PiPicoCaseWireFeedThrough.stl id:0 copy 0
G1 X114.001 Y108.677 F12000
G1 E.8 F1500
M204 P900
;TYPE:Perimeter
;WIDTH:0.449999
G1 F2700
G1 X113.892 Y108.597 E.00458
G1 X113.691 Y108.293 E.01233
G1 X113.632 Y107.947 E.01187
G1 X113.632 Y102.104 E.19777
G1 X113.666 Y101.784 E.01092
G1 X113.85 Y101.444 E.01307
G1 X114.096 Y101.239 E.01086
G1 X114.528 Y101.132 E.01504
G1 X135.48 Y101.133 E.70921
G1 X135.915 Y101.248 E.01523
G1 X136.203 Y101.508 E.01314
G1 X136.338 Y101.797 E.01079
G1 X136.367 Y102.048 E.00856
G1 X136.368 Y107.896 E.19794
G1 X136.333 Y108.223 E.01115
G1 X136.166 Y108.529 E.01179
G1 X135.904 Y108.761 E.01186
G1 X135.472 Y108.868 E.01504
M73 P33 R1
G1 X114.637 Y108.867 E.70526
G1 X114.407 Y108.849 E.0078
G1 X114.102 Y108.753 E.01084
G1 X114.049 Y108.713 E.00223
M204 P1000
G1 X113.743 Y109.023 F12000
M204 P700
;TYPE:External perimeter
G1 F1500
G1 X113.477 Y108.757 E.01276
G1 X113.301 Y108.426 E.01267
G1 X113.225 Y107.982 E.01525
G1 X113.225 Y102.104 E.19894
G1 X113.27 Y101.673 E.01468
G1 X113.428 Y101.314 E.01327
G1 X113.64 Y101.061 E.01117
G1 X113.91 Y100.872 E.01117
G1 X114.107 Y100.805 E.00705
G1 X114.51 Y100.725 E.01388
G1 X135.375 Y100.726 E.70626
M73 P34 R1
G1 X135.994 Y100.827 E.02124
G1 X136.224 Y100.953 E.00888
G1 X136.542 Y101.271 E.01519
G1 X136.731 Y101.677 E.01519
G1 X136.774 Y102.048 E.01262
G1 X136.775 Y107.896 E.19794
G1 X136.73 Y108.33 E.01477
G1 X136.604 Y108.634 E.01117
G1 X136.358 Y108.94 E.01327
M73 P35 R1
G1 X136.09 Y109.128 E.01109
G1 X135.866 Y109.204 E.00799
G1 X135.49 Y109.275 E.01296
G1 X114.587 Y109.274 E.70756
G1 X114.076 Y109.2 E.01747
G1 X113.796 Y109.051 E.01072
M204 P1000
G1 X113.779 Y108.648 F12000
G1 E-.64 F2100
;WIPE_START
G1 F9600
G1 X113.477 Y108.757 E-.09031
G1 X113.337 Y108.494 E-.06169
;WIPE_END
G1 E-.008 F2100
G1 Z.6 F720
M73 P36 R1
G1 X124.434 Y106.249 F12000
G1 Z.4 F720
G1 E.8 F1500
M204 P900
;TYPE:Perimeter
G1 X124.365 Y106.22 E.00252
G1 X124.115 Y106.053 E.01018
G1 X123.947 Y105.885 E.00806
G1 X123.78 Y105.635 E.01019
G1 X123.688 Y105.414 E.00807
G1 X123.618 Y105 E.01424
G1 X123.688 Y104.585 E.01424
G1 X123.78 Y104.365 E.00806
G1 X123.947 Y104.115 E.01018
G1 X124.115 Y103.947 E.00806
G1 X124.365 Y103.78 E.01018
G1 X124.582 Y103.689 E.00794
G1 X124.99 Y103.618 E.01403
G1 X125.41 Y103.687 E.01442
G1 X125.635 Y103.779 E.00821
G1 X125.885 Y103.947 E.01019
G1 X126.053 Y104.115 E.00806
G1 X126.22 Y104.365 E.01019
G1 X126.312 Y104.586 E.00807
G1 X126.382 Y105 E.01423
G1 X126.312 Y105.415 E.01424
G1 X126.22 Y105.635 E.00806
G1 X126.053 Y105.885 E.01018
G1 X125.885 Y106.053 E.00806
G1 X125.635 Y106.22 E.01019
G1 X125.414 Y106.312 E.00807
G1 X125 Y106.382 E.01424
G1 X124.585 Y106.312 E.01424
G1 X124.489 Y106.272 E.00351
M204 P1000
G1 X124.591 Y105.882 F12000
M204 P700
;TYPE:External perimeter
M73 P37 R1
G1 F1500
G1 X124.285 Y105.659 E.01283
G1 X124.088 Y105.335 E.01284
G1 X124.029 Y104.96 E.01285
G1 X124.118 Y104.591 E.01284
G1 X124.341 Y104.285 E.01283
G1 X124.664 Y104.088 E.01279
G1 X125.028 Y104.029 E.0125
G1 X125.408 Y104.118 E.01322
G1 X125.715 Y104.341 E.01284
G1 X125.912 Y104.665 E.01284
G1 X125.971 Y105.04 E.01285
G1 X125.882 Y105.409 E.01284
G1 X125.659 Y105.715 E.01283
G1 X125.335 Y105.912 E.01284
G1 X124.96 Y105.971 E.01285
G1 X124.65 Y105.896 E.01081
M204 P1000
G1 X124.282 Y106.1 F12000
G1 E-.64 F2100
;WIPE_START
G1 F9600
G1 X124.285 Y105.659 E-.09039
G1 X124.131 Y105.406 E-.06161
;WIPE_END
G1 E-.008 F2100
G1 Z.6 F720
G1 X136.185 Y107.431 F12000
G1 Z.4 F720
G1 E.8 F1500
M204 P1500
;TYPE:Solid infill
;WIDTH:0.452635
G1 F5400
G1 X135.114 Y108.502 E.05159
G1 X134.534 Y108.501 E.01974
G1 X136.001 Y107.035 E.07067
G1 X136.001 Y106.455 E.01974
G1 X133.955 Y108.501 E.09858
G1 X133.376 Y108.501 E.01974
G1 X136.001 Y105.876 E.12649
G1 X136.001 Y105.297 E.01974
G1 X132.796 Y108.501 E.1544
G1 X132.217 Y108.501 E.01974
G1 X136.001 Y104.717 E.1823
G1 X136.001 Y104.138 E.01974
G1 X131.638 Y108.501 E.21021
G1 X131.058 Y108.501 E.01974
G1 X136.001 Y103.559 E.23812
G1 X136 Y102.98 E.01974
M73 P38 R1
G1 X130.479 Y108.501 E.26603
G1 X129.899 Y108.501 E.01974
G1 X136 Y102.4 E.29394
G1 X136 Y102.01 E.01328
G1 X135.984 Y101.904 E.00367
G1 X135.963 Y101.859 E.00171
G1 X129.32 Y108.501 E.32004
G1 X128.741 Y108.501 E.01974
G1 X135.689 Y101.553 E.33478
G1 X135.441 Y101.499 E.00864
G1 X135.163 Y101.499 E.00948
G1 X128.161 Y108.501 E.33733
G1 X127.582 Y108.501 E.01974
G1 X134.583 Y101.499 E.33733
G1 X134.004 Y101.499 E.01974
G1 X127.002 Y108.501 E.33733
M73 P39 R1
G1 X126.423 Y108.501 E.01974
G1 X133.425 Y101.499 E.33733
G1 X132.845 Y101.499 E.01974
G1 X125.844 Y108.501 E.33733
G1 X125.264 Y108.501 E.01974
G1 X132.266 Y101.499 E.33733
G1 X131.686 Y101.499 E.01974
G1 X124.685 Y108.501 E.33733
G1 X124.105 Y108.501 E.01974
G1 X131.107 Y101.499 E.33733
G1 X130.528 Y101.499 E.01974
M73 P40 R1
G1 X126.703 Y105.324 E.18425
G1 X126.668 Y105.502 E.0062
G1 X126.534 Y105.825 E.01191
G1 X126.349 Y106.102 E.01134
G1 X126.102 Y106.349 E.0119
G1 X125.825 Y106.534 E.01135
G1 X125.502 Y106.668 E.01192
G1 X125.324 Y106.703 E.00618
G1 X123.526 Y108.501 E.08661
G1 X122.947 Y108.501 E.01974
G1 X124.733 Y106.715 E.08606
G1 X124.498 Y106.668 E.00816
G1 X124.287 Y106.581 E.00776
G1 X122.367 Y108.501 E.09251
G1 X121.788 Y108.501 E.01974
G1 X123.923 Y106.366 E.10287
G1 X123.634 Y106.076 E.01396
G1 X121.209 Y108.501 E.11684
M73 P41 R1
G1 X120.629 Y108.501 E.01974
G1 X123.419 Y105.711 E.1344
G1 X123.332 Y105.502 E.00772
G1 X123.285 Y105.265 E.00821
G1 X119.867 Y108.684 E.1647
M204 P1000
G1 E-.64 F2100
;WIPE_START
G1 F9600
G1 X120.384 Y108.167 E-.152
;WIPE_END
G1 E-.008 F2100
G1 Z.6 F720
G1 X126.555 Y104.893 F12000
G1 Z.4 F720
G1 E.8 F1500
M204 P1500
G1 F5400
G1 X129.948 Y101.499 E.1635
G1 X129.369 Y101.499 E.01974
G1 X126.581 Y104.287 E.13434
G1 X126.534 Y104.175 E.00415
G1 X126.366 Y103.923 E.01033
G1 X128.789 Y101.499 E.11678
G1 X128.21 Y101.499 E.01974
G1 X126.076 Y103.634 E.10284
G1 X125.825 Y103.466 E.01028
G1 X125.711 Y103.419 E.0042
M73 P42 R0
G1 X127.631 Y101.499 E.09251
G1 X127.051 Y101.499 E.01974
G1 X125.105 Y103.446 E.09379
M204 P1000
G1 E-.64 F2100
;WIPE_START
G1 F9600
G1 X125.622 Y102.929 E-.152
;WIPE_END
G1 E-.008 F2100
G1 Z.6 F720
G1 X126.655 Y101.316 F12000
G1 Z.4 F720
G1 E.8 F1500
